X: 1556
T: Chief O'Neill's Favorite
R:hornpipe
N:"Collected by Cronin"
B:O'Neill's 1556
Z:Transcribed by Michael Hogan
Z:Slurs corrected by John Chambers
M:C|
L:1/8
K:D
(de) | fef(g af)ge | fde(d dc)AG| (FE)(FD) FGA(B | c)Adc A2(de) |
fef(g af)ge |fde(d dc)AG | (FE)(FD) GBAG | F2 D2 D2 :|
|: (DE) | (FEF)(D FG)AB | cAd(B cA)GB | Add(e fd)ed | c(Adc) A2 (de) |
fef(g af)ge | fde(d dc)AG | (FE)(FD) GBAG | F2 D2 D2 :||


